T: I Schottische Lan Yr Wyddfa
M: 4/4
L: 1/8
K: Dmaj
|: f>a |
b>a^g>a f2 d>f | a>gf<g B2 e>d | c>dB>c A>ce>g | b<a^g>a f2 d>f |
b>a^g>a f2 (3def | a>gf>g B2 (3fed | c<dB>c A<ce>c | d2 f2 d2 :|
|:(3BAG |
F>Ad>A F>Ad>f | a>gf<g B3 d | c>dB>c A>ce>g | b>a^g<a f>dA>G |
F>A d2 (3FGA d2 | a<gf>g B>fe>d | c>dB>c A>ce<c | d2 f2 d2 :|
